X:16
T:Alleluia (de Schtz)
C:Schutz
M:3/4
L:1/4
K:Dm
"Rem"DAA|A2F|G2B|A3|AAc|B2A|G2G|F3|AGF|G2E|F2F|E3|EFG|A2F|GE2|D3|]
